X: 29269
T: New Mown Meadows, The
R: reel
M: 4/4
K: Edorian
|:BEED E2FA|B2cA BAFA|BEED E2EF|A2BA FEFA|
BEED E2FA|B2cA BAFA|d2dB c2cB|1 AcBA FEFA:|2 AcBA FAdf||
|:e2ce fecf|e2cA BAFf|e2ce fecA|B2cA BAFf|
e2ce fecf|e2cA BAFA|d2dB c2cB|1 AcBA FAdf:|2 AcBA FEFA||

